apps/frontend/src/app/icon.svg

<svg width="71" height="71" viewBox="0 0 71 71" fill="none" xmlns="http://www.w3.org/2000/svg">
<path d="M36.6186 0.000546713C41.4635 -0.0302878 47.0345 1.24253 52.2307 3.98041C55.4503 5.67686 58.3499 7.83167 60.9604 10.3918C64.3397 13.706 67.0091 17.5026 68.7939 21.8719C69.664 24.0025 70.2976 26.2398 70.9044 28.4655C71.4113 30.3233 69.834 32.1501 67.7796 32.2656C65.6434 32.3856 63.9248 30.9764 63.2965 28.7552C60.4725 18.7726 54.0572 12.1538 44.2987 8.79976C40.5323 7.50527 36.6047 7.27859 32.638 7.64388C23.6292 8.47336 16.727 12.8605 11.5596 20.1385C9.70182 22.7553 8.45309 25.6795 7.6432 28.7863C7.13965 30.7181 5.80427 32.0503 3.83952 32.1953C1.29347 32.3834 -0.377983 30.3364 0.0736254 28.3405C1.47205 22.1577 4.17226 16.6556 8.46087 11.9593C12.4617 7.57833 17.1939 4.26904 22.7685 2.19785C26.9043 0.661126 31.1918 0.000546713 36.6186 0.000546713Z" fill="#CCCCCC"/>
<path d="M35.6793 35.6652C41.775 35.6652 47.8703 35.6652 53.966 35.6652C55.0787 35.6652 55.057 35.6644 54.9924 36.7399C54.8025 39.9025 53.901 42.8498 52.2608 45.5525C49.4342 50.2102 45.3344 53.1492 40.0464 54.458C38.0625 54.9489 36.0408 55.1466 34.0263 54.9306C29.9093 54.4888 26.1836 53.0241 23.0358 50.2707C19.1676 46.8873 16.954 42.6368 16.426 37.5198C16.3874 37.1454 16.3627 36.7688 16.3072 36.3969C16.2166 35.792 16.4876 35.6511 17.059 35.6538C21.3525 35.6746 25.6461 35.6649 29.9396 35.6649C31.8527 35.6652 33.7662 35.6652 35.6793 35.6652Z" fill="#CCCCCC"/>
<path d="M39.3418 67.2128C39.3479 65.4451 40.7387 63.6319 42.4296 63.1908C45.209 62.4656 47.8897 61.4983 50.3931 60.0237C52.3226 58.887 54.2541 59.1581 55.5684 60.6195C57.1038 62.3264 56.8078 64.686 54.9407 65.9913C51.553 68.3591 47.8314 69.9121 43.8594 70.8797C41.4112 71.4761 39.3333 69.7923 39.3418 67.2128Z" fill="#CCCCCC"/>
<path d="M18.5497 59.3203C19.2047 59.513 19.9325 59.5806 20.5021 59.9201C23.0998 61.4688 25.9043 62.4468 28.7917 63.2466C31.5223 64.0028 32.8153 67.1647 31.361 69.4223C30.5027 70.7547 29.2665 71.2404 27.7324 70.8899C23.6343 69.9534 19.8091 68.3579 16.23 66.1274C13.9547 64.7097 13.8262 61.7954 16.0139 60.2337C16.7909 59.679 17.5538 59.4361 18.5497 59.3203Z" fill="#CCCCCC"/>
<path d="M7.87764 56.5526C6.50412 56.5879 5.61138 56.0261 4.9435 55.0307C2.53124 51.436 1.08111 47.4405 0.0623501 43.2696C-0.322946 41.6925 1.13218 39.8127 2.9182 39.426C5.15947 38.9407 7.04181 40.6467 7.60032 42.2878C8.22906 44.1356 8.85975 45.985 9.57788 47.7986C9.91848 48.6584 10.4631 49.4377 10.9175 50.2523C11.5782 51.4358 11.9579 52.6543 11.4333 54.0033C10.8165 55.5897 9.42798 56.5498 7.87764 56.5526Z" fill="#CCCCCC"/>
<path d="M59.3203 52.629C59.6104 51.8753 59.7961 51.0572 60.2092 50.3792C61.6428 48.0254 62.6364 45.5005 63.3114 42.8418C63.8689 40.6463 65.6187 39.2378 67.7088 39.3481C69.8404 39.4606 71.3902 41.4419 70.9133 43.5196C69.9927 47.5311 68.538 51.3267 66.2578 54.7763C65.2612 56.2838 63.8537 56.8632 62.2824 56.3969C60.6059 55.899 59.4767 54.4065 59.3203 52.629Z" fill="#CCCCCC"/>
</svg>

<svg width="71" height="71" fill="none" xmlns="http://www.w3.org/2000/svg"><path d="M36.619 0c4.845-.03 10.416 1.243 15.612 3.98 3.22 1.697 6.119 3.852 8.73 6.412 3.379 3.314 6.048 7.11 7.833 11.48.87 2.13 1.504 4.368 2.11 6.593.507 1.858-1.07 3.685-3.124 3.8-2.137.12-3.855-1.289-4.483-3.51-2.825-9.982-9.24-16.601-18.998-19.955-3.767-1.295-7.694-1.521-11.661-1.156-9.009.83-15.911 5.216-21.078 12.495-1.858 2.616-3.107 5.54-3.917 8.647-.503 1.932-1.839 3.264-3.803 3.41-2.547.187-4.218-1.86-3.766-3.855 1.398-6.183 4.098-11.685 8.387-16.382 4-4.38 8.733-7.69 14.307-9.761C26.904.66 31.192 0 36.618 0ZM35.68 35.665h18.286c1.113 0 1.091 0 1.026 1.075-.19 3.163-1.091 6.11-2.731 8.813-2.827 4.657-6.927 7.596-12.215 8.905-1.983.49-4.005.689-6.02.473-4.117-.442-7.842-1.907-10.99-4.66-3.868-3.384-6.082-7.634-6.61-12.751-.039-.375-.063-.751-.119-1.123-.09-.605.18-.746.752-.743 4.293.02 8.587.01 12.88.01l5.74.001ZM39.342 67.213c.006-1.768 1.397-3.581 3.088-4.022 2.779-.725 5.46-1.693 7.963-3.167 1.93-1.137 3.861-.866 5.175.596 1.536 1.706 1.24 4.066-.627 5.371-3.388 2.368-7.11 3.921-11.082 4.889-2.448.596-4.526-1.088-4.517-3.667ZM18.55 59.32c.655.193 1.383.26 1.952.6 2.598 1.549 5.402 2.527 8.29 3.327 2.73.756 4.023 3.918 2.569 6.175-.858 1.333-2.095 1.818-3.629 1.468-4.098-.937-7.923-2.532-11.502-4.763-2.275-1.417-2.404-4.332-.216-5.893.777-.555 1.54-.798 2.536-.914ZM7.878 56.553c-1.374.035-2.267-.527-2.934-1.522C2.53 51.436 1.08 47.44.062 43.27c-.385-1.578 1.07-3.457 2.856-3.844 2.241-.485 4.124 1.22 4.682 2.862.63 1.848 1.26 3.697 1.978 5.51.34.86.885 1.64 1.34 2.454.66 1.184 1.04 2.402.515 3.751-.617 1.587-2.005 2.547-3.555 2.55ZM59.32 52.629c.29-.754.476-1.572.89-2.25 1.433-2.354 2.426-4.878 3.101-7.537.558-2.196 2.308-3.604 4.398-3.494 2.131.113 3.681 2.094 3.204 4.172-.92 4.011-2.375 7.807-4.655 11.256-.997 1.508-2.404 2.087-3.976 1.62-1.676-.497-2.805-1.99-2.962-3.767Z" fill="#CCC"/></svg>
